icons/mobile/24/svg/translate-24.svg

<svg width="24" height="24" viewBox="0 0 24 24" fill="none" xmlns="http://www.w3.org/2000/svg">
<path fill-rule="evenodd" clip-rule="evenodd" d="M7.85556 2.5C8.3274 2.5 8.70979 2.88174 8.71005 3.35352V4.5752C10.4369 4.62546 12.1585 4.85952 13.836 5.27637C14.3049 5.39345 14.5907 5.867 14.4747 6.33594C14.3577 6.80589 13.8781 7.08954 13.4142 6.97363C13.0986 6.89518 12.7806 6.82618 12.462 6.76172C11.6561 8.93848 10.4745 10.9311 8.95517 12.6602C9.38509 13.1371 9.8433 13.5906 10.3292 14.0195C10.9112 14.5335 11.5614 14.9449 12.2384 15.2949L14.5899 9.61816C14.7449 9.24521 15.1098 9.00103 15.5138 9.00098H16.3595C16.7645 9.00098 17.1293 9.24416 17.2843 9.61816L21.5089 19.8154H21.5108C21.7445 20.3793 21.3297 21 20.7188 21C20.3719 21 20.0598 20.7907 19.9269 20.4707L18.7999 17.75H13.0792L11.9522 20.4707C11.8193 20.7906 11.5071 20.9999 11.1602 21C10.5493 21 10.1345 20.3794 10.3683 19.8154L11.5626 16.9287C10.7237 16.5067 9.93281 15.9796 9.21591 15.3457C8.69904 14.8908 8.2168 14.4043 7.75791 13.8994C7.60008 14.0473 7.45001 14.2009 7.2872 14.3447C6.35524 15.1667 5.30085 15.8086 4.1749 16.2656C3.60395 16.4976 2.97677 16.0681 2.97666 15.4512C2.97666 15.0892 3.20511 14.7756 3.54111 14.6396C4.493 14.2537 5.38505 13.7135 6.17197 13.0186C6.33886 12.8716 6.49351 12.7135 6.65341 12.5605C5.61059 11.1697 4.76776 9.63779 4.13584 8H5.9708C6.47775 9.16989 7.11156 10.274 7.85947 11.2969C9.07904 9.86641 10.051 8.24368 10.7462 6.48145C8.02589 6.1482 5.24601 6.31205 2.58603 6.97363C2.5161 6.99162 2.44406 6.99999 2.37412 7C1.98112 7 1.62451 6.73394 1.52451 6.33594C1.40861 5.86699 1.69521 5.39335 2.16416 5.27637C3.7482 4.88265 5.37174 4.65456 7.00205 4.58789V3.35352C7.00231 2.88186 7.38389 2.5002 7.85556 2.5ZM13.8019 16H18.0724L15.9366 10.8447L13.8019 16Z" fill="black"/>
</svg>

<!-- This Source Code Form is subject to the terms of the Mozilla Public
   - License, v. 2.0. If a copy of the MPL was not distributed with this
   - file, You can obtain one at http://mozilla.org/MPL/2.0/. -->
<svg xmlns="http://www.w3.org/2000/svg" width="24" height="24" fill="none" viewBox="0 0 24 24">
    <path fill="#000" fill-rule="evenodd" d="M7.856 2.5c.471 0 .854.382.854.854v1.221a24.2 24.2 0 0 1 5.126.701.875.875 0 0 1-.422 1.698 22 22 0 0 0-.952-.212 18.8 18.8 0 0 1-3.507 5.898q.645.715 1.374 1.36a9.3 9.3 0 0 0 1.91 1.275l2.35-5.677c.156-.373.52-.617.925-.617h.846a1 1 0 0 1 .924.617l4.225 10.197h.002a.857.857 0 1 1-1.584.656L18.8 17.75h-5.72l-1.128 2.72a.858.858 0 0 1-1.584-.655l1.195-2.886c-.84-.422-1.63-.95-2.347-1.583-.517-.455-1-.942-1.458-1.447-.158.148-.308.302-.47.446a10.9 10.9 0 0 1-3.113 1.92.876.876 0 0 1-1.198-.814.88.88 0 0 1 .564-.811 9.2 9.2 0 0 0 2.631-1.621c.167-.147.322-.306.481-.459A19 19 0 0 1 4.136 8H5.97a17 17 0 0 0 1.888 3.297 17 17 0 0 0 2.887-4.816c-2.72-.333-5.5-.169-8.16.493a.877.877 0 0 1-1.062-.638.876.876 0 0 1 .64-1.06 24 24 0 0 1 4.838-.688V3.354c0-.472.382-.854.854-.854M13.802 16h4.27l-2.135-5.155z" clip-rule="evenodd" />
</svg>
